img/svg/16/net/palmpre.svg

<svg xmlns="http://www.w3.org/2000/svg" viewBox="0 0 16 16" enable-background="new 0 0 16 16"><path d="M3.004 1l-.004.004v13.996h2v-3.996l.004-.004h2.306c1.225 0 2.405-.065 2.688-.125 1.441-.306 2.596-1.626 2.885-3.093.072-.366.098-1.178.075-2.273-.038-1.814-.038-1.704-.399-2.477-.36-.772-.972-1.398-1.741-1.763l-.566-.269h-7.247999999999999zm5.413 1.988c1.567-.001 1.723.19 2.116.584.434.434.524.891.488 2.511-.027 1.197-.059 1.446-.218 1.716-.239.406-.929 1.099-1.386 1.205l-4.417-.004v-6l2.417-.006 1-.006z" fill="#ccc"/></svg>

<svg xmlns="http://www.w3.org/2000/svg" viewBox="0 0 16 16"><path fill="#ccc" d="M3.004 1 3 1.004V15h2v-3.996L5.004 11H7.31c1.225 0 2.405-.065 2.688-.125 1.441-.306 2.596-1.626 2.885-3.093.072-.366.098-1.178.075-2.273-.038-1.814-.038-1.704-.399-2.477a3.655 3.655 0 0 0-1.741-1.763L10.252 1H3.004zm5.413 1.988c1.567-.001 1.723.19 2.116.584.434.434.524.891.488 2.511-.027 1.197-.059 1.446-.218 1.716-.239.406-.929 1.099-1.386 1.205L5 9V3l2.417-.006 1-.006z"/></svg>
